client/svg/trash.svg

<svg version="1.1" xmlns="http://www.w3.org/2000/svg" width="512" height="512" viewBox="-48 0 512 512"><path d="M352 64h-128c0 0 0-12.029 0-16 0-8.837-7.163-16-16-16s-16 7.163-16 16c0 8.837 0 16 0 16h-128c-17.673 0-32 14.327-32 32v32c0 17.673 14.327 32 32 32v288c0 17.673 14.327 32 32 32h224c17.673 0 32-14.327 32-32v-288c17.673 0 32-14.327 32-32v-32c0-17.673-14.327-32-32-32zM320 432c0 8.837-7.163 16-16 16h-192c-8.837 0-16-7.163-16-16v-272h32v240c0 8.837 7.163 16 16 16s16-7.163 16-16l0.194-240h31.806v240c0 8.837 7.163 16 16 16s16-7.163 16-16l0.194-240h32l-0.194 240c0 8.837 7.164 16 16 16s16-7.163 16-16v-240h32v272zM352 120c0 4.418-3.582 8-8 8h-272c-4.418 0-8-3.582-8-8v-16c0-4.418 3.582-8 8-8h272c4.418 0 8 3.582 8 8v16z"></path></svg>

<svg xmlns="http://www.w3.org/2000/svg" width="512" height="512" viewBox="-48 0 512 512"><path d="M352 64H224V48c0-8.837-7.163-16-16-16s-16 7.163-16 16v16H64c-17.673 0-32 14.327-32 32v32c0 17.673 14.327 32 32 32v288c0 17.673 14.327 32 32 32h224c17.673 0 32-14.327 32-32V160c17.673 0 32-14.327 32-32V96c0-17.673-14.327-32-32-32zm-32 368c0 8.837-7.163 16-16 16H112c-8.837 0-16-7.163-16-16V160h32v240c0 8.837 7.163 16 16 16s16-7.163 16-16l.194-240H192v240c0 8.837 7.163 16 16 16s16-7.163 16-16l.194-240h32L256 400c0 8.837 7.164 16 16 16s16-7.163 16-16V160h32v272zm32-312c0 4.418-3.582 8-8 8H72c-4.418 0-8-3.582-8-8v-16c0-4.418 3.582-8 8-8h272c4.418 0 8 3.582 8 8v16z"/></svg>
